tipitek/img/Wallet.svg

<svg width="32" height="32" viewBox="0 0 32 32" fill="none" xmlns="http://www.w3.org/2000/svg">
<path fill-rule="evenodd" clip-rule="evenodd" d="M22.1867 4.00012C26.5961 4.00012 30.1827 7.58679 30.1827 11.9975V21.5668C30.1827 25.9761 26.5961 29.5641 22.1867 29.5641H10.6614C6.25206 29.5641 2.66406 25.9761 2.66406 21.5668V11.9975C2.66406 7.58679 6.25206 4.00012 10.6614 4.00012H22.1867ZM22.1867 6.00012H10.6614C7.35473 6.00012 4.66406 8.69079 4.66406 11.9975V21.5668C4.66406 24.8735 7.35473 27.5641 10.6614 27.5641H22.1867C25.4934 27.5641 28.1827 24.8735 28.1827 21.5668V21.1935L23.7855 21.1943C21.2562 21.1943 19.1975 19.1369 19.1962 16.6089C19.1962 14.0783 21.2549 12.0196 23.7855 12.0183L28.1827 12.0175V11.9975C28.1827 8.69079 25.4934 6.00012 22.1867 6.00012ZM28.1827 14.0175L23.7855 14.0183C22.3575 14.0196 21.1962 15.1809 21.1962 16.6076C21.1962 18.0329 22.3589 19.1943 23.7855 19.1943L28.1827 19.1935V14.0175ZM24.3957 15.5249C24.9477 15.5249 25.3957 15.9729 25.3957 16.5249C25.3957 17.0769 24.9477 17.5249 24.3957 17.5249H23.9797C23.4277 17.5249 22.9797 17.0769 22.9797 16.5249C22.9797 15.9729 23.4277 15.5249 23.9797 15.5249H24.3957ZM16.9107 10.0509C17.4627 10.0509 17.9107 10.4989 17.9107 11.0509C17.9107 11.6029 17.4627 12.0509 16.9107 12.0509H9.71206C9.16006 12.0509 8.71206 11.6029 8.71206 11.0509C8.71206 10.4989 9.16006 10.0509 9.71206 10.0509H16.9107Z" fill="#30CBFF"/>
</svg>

<svg width="32" height="32" fill="none" xmlns="http://www.w3.org/2000/svg"><path fill-rule="evenodd" clip-rule="evenodd" d="M22.187 4c4.41 0 7.996 3.587 7.996 7.998v9.569c0 4.41-3.587 7.997-7.996 7.997H10.66c-4.409 0-7.997-3.588-7.997-7.997v-9.57C2.664 7.588 6.252 4 10.661 4h11.526zm0 2H10.66a6.004 6.004 0 0 0-5.997 5.998v9.569a6.004 6.004 0 0 0 5.997 5.997h11.526a6.003 6.003 0 0 0 5.996-5.997v-.373h-4.398a4.594 4.594 0 0 1-4.589-4.585c0-2.53 2.059-4.59 4.59-4.59l4.397-.002v-.02A6.003 6.003 0 0 0 22.187 6zm5.996 8.017l-4.398.001a2.594 2.594 0 0 0-2.589 2.59 2.592 2.592 0 0 0 2.59 2.586h4.397v-5.176zm-3.787 1.508a1 1 0 0 1 0 2h-.416a1 1 0 0 1 0-2h.416zM16.91 10.05a1 1 0 0 1 0 2H9.712a1 1 0 0 1 0-2h7.199z" fill="#30CBFF"/></svg>
